X: 1290
T: An Gabhrán
R: reel
M: 4/4
K: Edorian
|:B3A Bded|B3A BEFE|B3A Bdef|gfed Bded:|
|:BEFE BEFE|D2FD ADFA|BEFE BEFA|BdcA B3A:|

